Newaita-dark/devices/24/network-cellular.svg

<svg height="24pt" viewBox="0 0 24 24" width="24pt" xmlns="http://www.w3.org/2000/svg" xmlns:xlink="http://www.w3.org/1999/xlink"><linearGradient id="a" gradientTransform="matrix(.0443745 0 0 .0468795 .577567 10.079088)" gradientUnits="userSpaceOnUse" x1="254" x2="254" y1="233.5" y2="254.66667"><stop offset="0" stop-opacity=".27451"/><stop offset="1" stop-opacity="0"/></linearGradient><linearGradient id="b"><stop offset="0" stop-opacity=".313725"/><stop offset=".222222" stop-opacity=".27451"/><stop offset="1" stop-opacity="0"/></linearGradient><radialGradient id="c" cx="450.90894" cy="189.57936" gradientTransform="matrix(.00000013 -.0585994 -.105479 -.00000008 39.346056 47.696501)" gradientUnits="userSpaceOnUse" r="21.166656" xlink:href="#b"/><radialGradient id="d" cx="450.90894" cy="189.57936" gradientTransform="matrix(-.00000013 .0585994 .105479 .00000008 -15.531283 -5.645609)" gradientUnits="userSpaceOnUse" r="21.166656" xlink:href="#b"/><radialGradient id="e" cx="450.90894" cy="189.57936" gradientTransform="matrix(-.00000013 -.0585994 .105479 -.00000008 -15.531283 47.696501)" gradientUnits="userSpaceOnUse" r="21.166656" xlink:href="#b"/><radialGradient id="f" cx="450.90894" cy="189.57936" gradientTransform="matrix(.00000013 .0585994 -.105479 .00000008 39.346055 -5.645609)" gradientUnits="userSpaceOnUse" r="21.166656" xlink:href="#b"/><linearGradient id="g" gradientUnits="userSpaceOnUse" x1="11.907393" x2="11.907393" y1="21.02545025" y2="2.17207784373"><stop offset="0" stop-color="#66bb6a"/><stop offset="1" stop-color="#81c784"/></linearGradient><linearGradient id="h" gradientUnits="userSpaceOnUse" x1="14.8842" x2="14.8842" y1="21.0253985937" y2="2.17207760142"><stop offset="0" stop-color="#424242"/><stop offset="1" stop-color="#616161"/></linearGradient><path d="m4.21875 21.027344h15.378906v.992187h-15.378906zm0 0" fill="url(#a)"/><path d="m19.597656 21.027344h1.984375v-.996094h-1.984375zm0 0" fill="url(#c)"/><path d="m4.21875 21.027344h-1.984375v.992187h1.984375zm0 0" fill="url(#d)"/><path d="m4.21875 21.027344h-1.984375v-.996094h1.984375zm0 0" fill="url(#e)"/><path d="m19.597656 21.027344h1.984375v.992187h-1.984375zm0 0" fill="url(#f)"/><path d="m3.472656 2.171875h16.867188c.550781 0 .996094.445313.996094.992187v16.867188c0 .550781-.445313.996094-.996094.996094h-16.867188c-.546875 0-.992187-.445313-.992187-.996094v-16.867188c0-.546874.445312-.992187.992187-.992187zm0 0" fill="url(#g)"/><path d="m3.472656 2.171875c-.550781 0-.992187.441406-.992187.992187v.1875c0-.550781.441406-.992187.992187-.992187h16.867188c.550781 0 .996094.441406.996094.992187v-.1875c0-.550781-.445313-.992187-.996094-.992187zm0 0" fill="#fff" fill-opacity=".392157"/><path d="m74.076259-168.671091h359.798975c11.748878 0 21.247971 9.499093 21.247971 21.164646v359.798974c0 11.748878-9.499093 21.247971-21.247971 21.247971h-359.798975c-11.665552 0-21.164645-9.499093-21.164645-21.247971v-359.798974c0-11.665553 9.499093-21.164646 21.164645-21.164646zm0 0" fill="none" stroke="#212121" stroke-linecap="round" stroke-linejoin="round" stroke-width="3" transform="matrix(.0468795 0 0 .0468795 0 10.079087)"/><path d="m7.710938 3.9375c-1.699219 1.707031-2.75 4.058594-2.75 6.667969s1.050781 4.964843 2.75 6.667969l1.054687-1.054688c-1.433594-1.433594-2.316406-3.414062-2.316406-5.613281 0-2.195313.882812-4.179688 2.316406-5.613281zm11.246093 2.109375-1.054687 1.050781c.894531.898438 1.445312 2.136719 1.445312 3.507813 0 1.375-.550781 2.613281-1.445312 3.507812l1.054687 1.054688c1.164063-1.167969 1.882813-2.777344 1.882813-4.5625 0-1.785157-.71875-3.394531-1.882813-4.558594zm-9.136719 0c-1.164062 1.164063-1.882812 2.773437-1.882812 4.558594 0 1.785156.71875 3.394531 1.882812 4.5625l1.050782-1.054688c-.894532-.894531-1.445313-2.132812-1.445313-3.507812 0-1.371094.550781-2.609375 1.445313-3.507813zm4.566407 1.582031c-1.648438 0-2.976563 1.328125-2.976563 2.976563 0 1.300781.828125 2.402343 1.984375 2.808593v7.613282h1.984375v-7.613282c1.160156-.40625 1.984375-1.507812 1.984375-2.808593 0-1.648438-1.324219-2.976563-2.976562-2.976563zm0 0" fill="url(#h)"/><g fill-opacity=".235294"><path d="m7.710938 3.9375c-1.699219 1.707031-2.75 4.058594-2.75 6.667969 0 .058593 0 .117187.003906.171875.042968-2.539063 1.082031-4.828125 2.746094-6.496094l.886718.886719c.054688-.058594.109375-.117188.167969-.175781zm11.246093 2.109375-1.054687 1.050781c.058594.058594.113281.117188.167968.179688l.886719-.886719c1.125 1.125 1.835938 2.671875 1.878907 4.386719 0-.054688.003906-.113282.003906-.171875 0-1.785157-.71875-3.394531-1.882813-4.558594zm-9.136719 0c-1.164062 1.164063-1.882812 2.773437-1.882812 4.558594 0 .058593 0 .117187.003906.171875.042969-1.714844.75-3.261719 1.878906-4.386719l.886719.886719c.050781-.0625.109375-.121094.164063-.179688zm4.566407 1.582031c-1.648438 0-2.976563 1.328125-2.976563 2.976563 0 .058593.003906.117187.007813.171875.085937-1.566406 1.378906-2.804688 2.96875-2.804688 1.59375 0 2.886719 1.238282 2.972656 2.804688.003906-.054688.003906-.113282.003906-.171875 0-1.648438-1.324219-2.976563-2.976562-2.976563zm-4.957031 3.148438c-.003907.058594-.003907.113281-.003907.171875 0 1.285156.484375 2.453125 1.28125 3.332031l.164063-.167969c-.855469-.859375-1.398438-2.03125-1.441406-3.335937zm9.917968 0c-.046875 1.304687-.585937 2.476562-1.445312 3.335937l.167968.167969c.796876-.878906 1.277344-2.046875 1.277344-3.332031 0-.058594 0-.113281 0-.171875zm-12.894531 0c-.003906.058594-.003906.113281-.003906.171875 0 2.109375.816406 4.019531 2.148437 5.441406l.167969-.171875c-1.394531-1.394531-2.269531-3.3125-2.3125-5.441406zm0 0" fill="#fff"/><path d="m8.554688 5.195312c-1.308594 1.414063-2.105469 3.308594-2.105469 5.394532 0 .070312 0 .144531.003906.214844.054687-2.109376.925781-4.007813 2.3125-5.394532zm9.558593 2.109376-.210937.210937c.847656.847656 1.386718 2.003906 1.441406 3.289063.003906-.070313.003906-.144532.003906-.214844 0-1.261719-.464844-2.410156-1.234375-3.285156zm-7.449219 0c-.769531.875-1.238281 2.023437-1.238281 3.285156 0 .070312.003907.144531.003907.214844.054687-1.285157.597656-2.441407 1.441406-3.289063zm.753907 3.5c-.003907.074218-.007813.144531-.007813.21875 0 1.300781.828125 2.402343 1.984375 2.808593v-.433593c-1.09375-.386719-1.890625-1.386719-1.976562-2.59375zm5.9375 0c-.085938 1.207031-.882813 2.207031-1.976563 2.59375v.433593c1.160156-.40625 1.984375-1.507812 1.984375-2.808593 0-.074219 0-.144532-.007812-.21875zm-12.390625 0c-.003906.074218-.003906.144531-.003906.21875 0 2.609374 1.050781 4.964843 2.75 6.667968l1.054687-1.054687c-.074219-.074219-.144531-.144531-.210937-.222657l-.84375.84375c-1.652344-1.65625-2.691407-3.929687-2.746094-6.453124zm2.976562 0c0 .074218-.003906.144531-.003906.21875 0 1.785156.71875 3.394531 1.882812 4.558593l1.050782-1.050781c-.070313-.074219-.140625-.148438-.207032-.226562l-.84375.84375c-1.117187-1.117188-1.824218-2.644532-1.878906-4.34375zm12.894532 0c-.058594 1.699218-.761719 3.226562-1.878907 4.34375l-.84375-.84375c-.066406.078124-.136719.152343-.210937.226562l1.054687 1.050781c1.164063-1.164062 1.882813-2.773437 1.882813-4.558593 0-.074219-.003906-.144532-.003906-.21875zm-7.441407 10.203124v.019532h1.984375v-.019532zm0 0"/><path d="m3.472656 21.027344c-.550781 0-.992187-.445313-.992187-.996094v-.246094c0 .550782.441406.992188.992187.992188h16.867188c.550781 0 .996094-.441406.996094-.992188v.246094c0 .550781-.445313.996094-.996094.996094zm0 0"/></g><path d="m621.672924 317.450004c-136.994793 137.624655-221.711113 327.212851-221.711113 537.586465s84.71632 400.276741 221.711113 537.586465l85.031252-85.031251c-115.579516-115.579515-186.753822-275.249309-186.753822-452.555214 0-176.990974 71.174306-336.975699 186.753822-452.555214zm906.685081 170.062502-85.031251 84.716321c72.119098 72.434028 116.524307 172.267016 116.524307 282.807642 0 110.855557-44.405209 210.688544-116.524307 282.807643l85.031251 85.031251c93.849307-94.164238 151.79653-223.915628 151.79653-367.838894s-57.947223-273.674656-151.79653-367.523963zm-736.622578 0c-93.849307 93.849307-151.79653 223.600697-151.79653 367.523963s57.947223 273.674656 151.79653 367.838894l84.71632-85.031251c-72.119098-72.119099-116.524307-171.952086-116.524307-282.807643 0-110.540626 44.405209-210.373614 116.524307-282.807642zm368.153824 127.546877c-132.900696 0-239.977087 107.07639-239.977087 239.977086 0 104.871876 66.765279 193.682294 159.984725 226.435072v613.799661h159.984724v-613.799661c93.534376-32.752778 159.984724-121.563196 159.984724-226.435072 0-132.900696-106.76146-239.977086-239.977086-239.977086zm0 0" fill="none" stroke="#212121" stroke-linecap="round" stroke-linejoin="round" stroke-width="11.338583" transform="scale(.0124035)"/></svg>

<?xml version="1.0" encoding="UTF-8"?>
<svg xmlns="http://www.w3.org/2000/svg" xmlns:xlink="http://www.w3.org/1999/xlink" width="24pt" height="24pt" viewBox="0 0 24 24" version="1.1">
<defs>
<linearGradient id="linear0" gradientUnits="userSpaceOnUse" x1="254" y1="233.5" x2="254" y2="254.66667" gradientTransform="matrix(0.0443745,0,0,0.0468795,0.577567,10.079088)">
<stop offset="0" style="stop-color:rgb(0%,0%,0%);stop-opacity:0.27451;"/>
<stop offset="1" style="stop-color:rgb(0%,0%,0%);stop-opacity:0;"/>
</linearGradient>
<radialGradient id="radial0" gradientUnits="userSpaceOnUse" cx="450.90894" cy="189.57936" fx="450.90894" fy="189.57936" r="21.166656" gradientTransform="matrix(0.000000130628,-0.0585994,-0.105479,-0.0000000761539,39.346056,47.696501)">
<stop offset="0" style="stop-color:rgb(0%,0%,0%);stop-opacity:0.313725;"/>
<stop offset="0.222222" style="stop-color:rgb(0%,0%,0%);stop-opacity:0.27451;"/>
<stop offset="1" style="stop-color:rgb(0%,0%,0%);stop-opacity:0;"/>
</radialGradient>
<radialGradient id="radial1" gradientUnits="userSpaceOnUse" cx="450.90894" cy="189.57936" fx="450.90894" fy="189.57936" r="21.166656" gradientTransform="matrix(-0.000000130628,0.0585994,0.105479,0.0000000761539,-15.531283,-5.645609)">
<stop offset="0" style="stop-color:rgb(0%,0%,0%);stop-opacity:0.313725;"/>
<stop offset="0.222222" style="stop-color:rgb(0%,0%,0%);stop-opacity:0.27451;"/>
<stop offset="1" style="stop-color:rgb(0%,0%,0%);stop-opacity:0;"/>
</radialGradient>
<radialGradient id="radial2" gradientUnits="userSpaceOnUse" cx="450.90894" cy="189.57936" fx="450.90894" fy="189.57936" r="21.166656" gradientTransform="matrix(-0.000000130628,-0.0585994,0.105479,-0.0000000761539,-15.531283,47.696501)">
<stop offset="0" style="stop-color:rgb(0%,0%,0%);stop-opacity:0.313725;"/>
<stop offset="0.222222" style="stop-color:rgb(0%,0%,0%);stop-opacity:0.27451;"/>
<stop offset="1" style="stop-color:rgb(0%,0%,0%);stop-opacity:0;"/>
</radialGradient>
<radialGradient id="radial3" gradientUnits="userSpaceOnUse" cx="450.90894" cy="189.57936" fx="450.90894" fy="189.57936" r="21.166656" gradientTransform="matrix(0.000000130628,0.0585994,-0.105479,0.0000000761539,39.346055,-5.645609)">
<stop offset="0" style="stop-color:rgb(0%,0%,0%);stop-opacity:0.313725;"/>
<stop offset="0.222222" style="stop-color:rgb(0%,0%,0%);stop-opacity:0.27451;"/>
<stop offset="1" style="stop-color:rgb(0%,0%,0%);stop-opacity:0;"/>
</radialGradient>
<linearGradient id="linear1" gradientUnits="userSpaceOnUse" x1="254" y1="233.5" x2="254" y2="-168.66667" gradientTransform="matrix(0.0468795,0,0,0.0468795,0,10.079087)">
<stop offset="0" style="stop-color:rgb(40%,73.333333%,41.568627%);stop-opacity:1;"/>
<stop offset="1" style="stop-color:rgb(50.588235%,78.039216%,51.764706%);stop-opacity:1;"/>
</linearGradient>
<linearGradient id="linear2" gradientUnits="userSpaceOnUse" x1="1200" y1="1695.1182" x2="1200" y2="175.11812" gradientTransform="matrix(0.0124035,0,0,0.0124035,0,0)">
<stop offset="0" style="stop-color:rgb(25.882353%,25.882353%,25.882353%);stop-opacity:1;"/>
<stop offset="1" style="stop-color:rgb(38.039216%,38.039216%,38.039216%);stop-opacity:1;"/>
</linearGradient>
</defs>
<g id="surface1">
<path style=" stroke:none;fill-rule:nonzero;fill:url(#linear0);" d="M 4.21875 21.027344 L 19.597656 21.027344 L 19.597656 22.019531 L 4.21875 22.019531 Z M 4.21875 21.027344 "/>
<path style=" stroke:none;fill-rule:nonzero;fill:url(#radial0);" d="M 19.597656 21.027344 L 21.582031 21.027344 L 21.582031 20.03125 L 19.597656 20.03125 Z M 19.597656 21.027344 "/>
<path style=" stroke:none;fill-rule:nonzero;fill:url(#radial1);" d="M 4.21875 21.027344 L 2.234375 21.027344 L 2.234375 22.019531 L 4.21875 22.019531 Z M 4.21875 21.027344 "/>
<path style=" stroke:none;fill-rule:nonzero;fill:url(#radial2);" d="M 4.21875 21.027344 L 2.234375 21.027344 L 2.234375 20.03125 L 4.21875 20.03125 Z M 4.21875 21.027344 "/>
<path style=" stroke:none;fill-rule:nonzero;fill:url(#radial3);" d="M 19.597656 21.027344 L 21.582031 21.027344 L 21.582031 22.019531 L 19.597656 22.019531 Z M 19.597656 21.027344 "/>
<path style=" stroke:none;fill-rule:nonzero;fill:url(#linear1);" d="M 3.472656 2.171875 L 20.339844 2.171875 C 20.890625 2.171875 21.335938 2.617188 21.335938 3.164062 L 21.335938 20.03125 C 21.335938 20.582031 20.890625 21.027344 20.339844 21.027344 L 3.472656 21.027344 C 2.925781 21.027344 2.480469 20.582031 2.480469 20.03125 L 2.480469 3.164062 C 2.480469 2.617188 2.925781 2.171875 3.472656 2.171875 Z M 3.472656 2.171875 "/>
<path style=" stroke:none;fill-rule:nonzero;fill:rgb(100%,100%,100%);fill-opacity:0.392157;" d="M 3.472656 2.171875 C 2.921875 2.171875 2.480469 2.613281 2.480469 3.164062 L 2.480469 3.351562 C 2.480469 2.800781 2.921875 2.359375 3.472656 2.359375 L 20.339844 2.359375 C 20.890625 2.359375 21.335938 2.800781 21.335938 3.351562 L 21.335938 3.164062 C 21.335938 2.613281 20.890625 2.171875 20.339844 2.171875 Z M 3.472656 2.171875 "/>
<path style="fill:none;stroke-width:3;stroke-linecap:round;stroke-linejoin:round;stroke:rgb(12.941176%,12.941176%,12.941176%);stroke-opacity:1;stroke-miterlimit:4;" d="M 74.076259 -168.671091 L 433.875234 -168.671091 C 445.624112 -168.671091 455.123205 -159.171998 455.123205 -147.506445 L 455.123205 212.292529 C 455.123205 224.041407 445.624112 233.5405 433.875234 233.5405 L 74.076259 233.5405 C 62.410707 233.5405 52.911614 224.041407 52.911614 212.292529 L 52.911614 -147.506445 C 52.911614 -159.171998 62.410707 -168.671091 74.076259 -168.671091 Z M 74.076259 -168.671091 " transform="matrix(0.0468795,0,0,0.0468795,0,10.079087)"/>
<path style=" stroke:none;fill-rule:nonzero;fill:url(#linear2);" d="M 7.710938 3.9375 C 6.011719 5.644531 4.960938 7.996094 4.960938 10.605469 C 4.960938 13.214844 6.011719 15.570312 7.710938 17.273438 L 8.765625 16.21875 C 7.332031 14.785156 6.449219 12.804688 6.449219 10.605469 C 6.449219 8.410156 7.332031 6.425781 8.765625 4.992188 Z M 18.957031 6.046875 L 17.902344 7.097656 C 18.796875 7.996094 19.347656 9.234375 19.347656 10.605469 C 19.347656 11.980469 18.796875 13.21875 17.902344 14.113281 L 18.957031 15.167969 C 20.121094 14 20.839844 12.390625 20.839844 10.605469 C 20.839844 8.820312 20.121094 7.210938 18.957031 6.046875 Z M 9.820312 6.046875 C 8.65625 7.210938 7.9375 8.820312 7.9375 10.605469 C 7.9375 12.390625 8.65625 14 9.820312 15.167969 L 10.871094 14.113281 C 9.976562 13.21875 9.425781 11.980469 9.425781 10.605469 C 9.425781 9.234375 9.976562 7.996094 10.871094 7.097656 Z M 14.386719 7.628906 C 12.738281 7.628906 11.410156 8.957031 11.410156 10.605469 C 11.410156 11.90625 12.238281 13.007812 13.394531 13.414062 L 13.394531 21.027344 L 15.378906 21.027344 L 15.378906 13.414062 C 16.539062 13.007812 17.363281 11.90625 17.363281 10.605469 C 17.363281 8.957031 16.039062 7.628906 14.386719 7.628906 Z M 14.386719 7.628906 "/>
<path style=" stroke:none;fill-rule:nonzero;fill:rgb(100%,100%,100%);fill-opacity:0.235294;" d="M 7.710938 3.9375 C 6.011719 5.644531 4.960938 7.996094 4.960938 10.605469 C 4.960938 10.664062 4.960938 10.722656 4.964844 10.777344 C 5.007812 8.238281 6.046875 5.949219 7.710938 4.28125 L 8.597656 5.167969 C 8.652344 5.109375 8.707031 5.050781 8.765625 4.992188 Z M 18.957031 6.046875 L 17.902344 7.097656 C 17.960938 7.15625 18.015625 7.214844 18.070312 7.277344 L 18.957031 6.390625 C 20.082031 7.515625 20.792969 9.0625 20.835938 10.777344 C 20.835938 10.722656 20.839844 10.664062 20.839844 10.605469 C 20.839844 8.820312 20.121094 7.210938 18.957031 6.046875 Z M 9.820312 6.046875 C 8.65625 7.210938 7.9375 8.820312 7.9375 10.605469 C 7.9375 10.664062 7.9375 10.722656 7.941406 10.777344 C 7.984375 9.0625 8.691406 7.515625 9.820312 6.390625 L 10.707031 7.277344 C 10.757812 7.214844 10.816406 7.15625 10.871094 7.097656 Z M 14.386719 7.628906 C 12.738281 7.628906 11.410156 8.957031 11.410156 10.605469 C 11.410156 10.664062 11.414062 10.722656 11.417969 10.777344 C 11.503906 9.210938 12.796875 7.972656 14.386719 7.972656 C 15.980469 7.972656 17.273438 9.210938 17.359375 10.777344 C 17.363281 10.722656 17.363281 10.664062 17.363281 10.605469 C 17.363281 8.957031 16.039062 7.628906 14.386719 7.628906 Z M 9.429688 10.777344 C 9.425781 10.835938 9.425781 10.890625 9.425781 10.949219 C 9.425781 12.234375 9.910156 13.402344 10.707031 14.28125 L 10.871094 14.113281 C 10.015625 13.253906 9.472656 12.082031 9.429688 10.777344 Z M 19.347656 10.777344 C 19.300781 12.082031 18.761719 13.253906 17.902344 14.113281 L 18.070312 14.28125 C 18.867188 13.402344 19.347656 12.234375 19.347656 10.949219 C 19.347656 10.890625 19.347656 10.835938 19.347656 10.777344 Z M 6.453125 10.777344 C 6.449219 10.835938 6.449219 10.890625 6.449219 10.949219 C 6.449219 13.058594 7.265625 14.96875 8.597656 16.390625 L 8.765625 16.21875 C 7.371094 14.824219 6.496094 12.90625 6.453125 10.777344 Z M 6.453125 10.777344 "/>
<path style=" stroke:none;fill-rule:nonzero;fill:rgb(0%,0%,0%);fill-opacity:0.235294;" d="M 8.554688 5.195312 C 7.246094 6.609375 6.449219 8.503906 6.449219 10.589844 C 6.449219 10.660156 6.449219 10.734375 6.453125 10.804688 C 6.507812 8.695312 7.378906 6.796875 8.765625 5.410156 Z M 18.113281 7.304688 L 17.902344 7.515625 C 18.75 8.363281 19.289062 9.519531 19.34375 10.804688 C 19.347656 10.734375 19.347656 10.660156 19.347656 10.589844 C 19.347656 9.328125 18.882812 8.179688 18.113281 7.304688 Z M 10.664062 7.304688 C 9.894531 8.179688 9.425781 9.328125 9.425781 10.589844 C 9.425781 10.660156 9.429688 10.734375 9.429688 10.804688 C 9.484375 9.519531 10.027344 8.363281 10.871094 7.515625 Z M 11.417969 10.804688 C 11.414062 10.878906 11.410156 10.949219 11.410156 11.023438 C 11.410156 12.324219 12.238281 13.425781 13.394531 13.832031 L 13.394531 13.398438 C 12.300781 13.011719 11.503906 12.011719 11.417969 10.804688 Z M 17.355469 10.804688 C 17.269531 12.011719 16.472656 13.011719 15.378906 13.398438 L 15.378906 13.832031 C 16.539062 13.425781 17.363281 12.324219 17.363281 11.023438 C 17.363281 10.949219 17.363281 10.878906 17.355469 10.804688 Z M 4.964844 10.804688 C 4.960938 10.878906 4.960938 10.949219 4.960938 11.023438 C 4.960938 13.632812 6.011719 15.988281 7.710938 17.691406 L 8.765625 16.636719 C 8.691406 16.5625 8.621094 16.492188 8.554688 16.414062 L 7.710938 17.257812 C 6.058594 15.601562 5.019531 13.328125 4.964844 10.804688 Z M 7.941406 10.804688 C 7.941406 10.878906 7.9375 10.949219 7.9375 11.023438 C 7.9375 12.808594 8.65625 14.417969 9.820312 15.582031 L 10.871094 14.53125 C 10.800781 14.457031 10.730469 14.382812 10.664062 14.304688 L 9.820312 15.148438 C 8.703125 14.03125 7.996094 12.503906 7.941406 10.804688 Z M 20.835938 10.804688 C 20.777344 12.503906 20.074219 14.03125 18.957031 15.148438 L 18.113281 14.304688 C 18.046875 14.382812 17.976562 14.457031 17.902344 14.53125 L 18.957031 15.582031 C 20.121094 14.417969 20.839844 12.808594 20.839844 11.023438 C 20.839844 10.949219 20.835938 10.878906 20.835938 10.804688 Z M 13.394531 21.007812 L 13.394531 21.027344 L 15.378906 21.027344 L 15.378906 21.007812 Z M 13.394531 21.007812 "/>
<path style=" stroke:none;fill-rule:nonzero;fill:rgb(0%,0%,0%);fill-opacity:0.235294;" d="M 3.472656 21.027344 C 2.921875 21.027344 2.480469 20.582031 2.480469 20.03125 L 2.480469 19.785156 C 2.480469 20.335938 2.921875 20.777344 3.472656 20.777344 L 20.339844 20.777344 C 20.890625 20.777344 21.335938 20.335938 21.335938 19.785156 L 21.335938 20.03125 C 21.335938 20.582031 20.890625 21.027344 20.339844 21.027344 Z M 3.472656 21.027344 "/>
<path style="fill:none;stroke-width:11.338583;stroke-linecap:round;stroke-linejoin:round;stroke:rgb(12.941176%,12.941176%,12.941176%);stroke-opacity:1;stroke-miterlimit:4;" d="M 621.672924 317.450004 C 484.678131 455.074659 399.961811 644.662855 399.961811 855.036469 C 399.961811 1065.410083 484.678131 1255.31321 621.672924 1392.622934 L 706.704176 1307.591683 C 591.12466 1192.012168 519.950354 1032.342374 519.950354 855.036469 C 519.950354 678.045495 591.12466 518.06077 706.704176 402.481255 Z M 1528.358005 487.512506 L 1443.326754 572.228827 C 1515.445852 644.662855 1559.851061 744.495843 1559.851061 855.036469 C 1559.851061 965.892026 1515.445852 1065.725013 1443.326754 1137.844112 L 1528.358005 1222.875363 C 1622.207312 1128.711125 1680.154535 998.959735 1680.154535 855.036469 C 1680.154535 711.113203 1622.207312 581.361813 1528.358005 487.512506 Z M 791.735427 487.512506 C 697.88612 581.361813 639.938897 711.113203 639.938897 855.036469 C 639.938897 998.959735 697.88612 1128.711125 791.735427 1222.875363 L 876.451747 1137.844112 C 804.332649 1065.725013 759.92744 965.892026 759.92744 855.036469 C 759.92744 744.495843 804.332649 644.662855 876.451747 572.228827 Z M 1159.889251 615.059383 C 1026.988555 615.059383 919.912164 722.135773 919.912164 855.036469 C 919.912164 959.908345 986.677443 1048.718763 1079.896889 1081.471541 L 1079.896889 1695.271202 L 1239.881613 1695.271202 L 1239.881613 1081.471541 C 1333.415989 1048.718763 1399.866337 959.908345 1399.866337 855.036469 C 1399.866337 722.135773 1293.104877 615.059383 1159.889251 615.059383 Z M 1159.889251 615.059383 " transform="matrix(0.0124035,0,0,0.0124035,0,0)"/>
</g>
</svg>
